assets/icons/qvision/record_voice_over.svg

<svg xmlns="http://www.w3.org/2000/svg" height="24" viewBox="0 0 24 24" width="24"><path d="M0 0h24v24H0z" fill="none"/><circle cx="9" cy="9" r="4"/><path d="M9 15c-2.67 0-8 1.34-8 4v2h16v-2c0-2.66-5.33-4-8-4zm7.76-9.64l-1.68 1.69c.84 1.18.84 2.71 0 3.89l1.68 1.69c2.02-2.02 2.02-5.07 0-7.27zM20.07 2l-1.63 1.63c2.77 3.02 2.77 7.56 0 10.74L20.07 16c3.9-3.89 3.91-9.95 0-14z"/></svg>

<svg width="24" height="24" viewBox="0 0 24 24" fill="none" xmlns="http://www.w3.org/2000/svg">
<g clip-path="url(#clip0_147_4617)">
<path d="M9 13C11.2091 13 13 11.2091 13 9C13 6.79086 11.2091 5 9 5C6.79086 5 5 6.79086 5 9C5 11.2091 6.79086 13 9 13Z" fill="#323232"/>
<path d="M9 15C6.33 15 1 16.34 1 19V21H17V19C17 16.34 11.67 15 9 15ZM16.76 5.36L15.08 7.05C15.92 8.23 15.92 9.76 15.08 10.94L16.76 12.63C18.78 10.61 18.78 7.56 16.76 5.36ZM20.07 2L18.44 3.63C21.21 6.65 21.21 11.19 18.44 14.37L20.07 16C23.97 12.11 23.98 6.05 20.07 2Z" fill="#323232"/>
</g>
<defs>
<clipPath id="clip0_147_4617">
<rect width="24" height="24" fill="white"/>
</clipPath>
</defs>
</svg>
